icons/rust-dark.svg

<svg width="256" height="256" viewBox="0 0 256 256" fill="none" xmlns="http://www.w3.org/2000/svg">
<path d="M196 0H60C26.8629 0 0 26.8629 0 60V196C0 229.137 26.8629 256 60 256H196C229.137 256 256 229.137 256 196V60C256 26.8629 229.137 0 196 0Z" fill="#282828"/>
<path d="M225.613 125.628L217.306 120.479C217.236 119.669 217.157 118.861 217.069 118.056L224.222 111.393C224.949 110.715 225.275 109.712 225.078 108.742C224.886 107.768 224.203 106.965 223.275 106.623L214.134 103.215C213.905 102.424 213.664 101.638 213.419 100.849L219.115 92.9361C219.696 92.1315 219.815 91.0847 219.437 90.1723C219.058 89.2579 218.231 88.603 217.261 88.442L207.628 86.8747C207.253 86.144 206.863 85.4246 206.469 84.7166L210.52 75.8196C210.934 74.9147 210.848 73.8697 210.296 73.0369C209.745 72.2114 208.813 71.7288 207.817 71.7666L198.033 72.1073C197.528 71.4751 197.013 70.8486 196.489 70.2333L198.741 60.7115C198.968 59.7442 198.683 58.7239 197.979 58.0235C197.28 57.3231 196.266 57.0334 195.291 57.2605L185.773 59.5132C185.156 58.9907 184.529 58.474 183.895 57.9686L184.238 48.1818C184.275 47.1917 183.792 46.2509 182.968 45.702C182.141 45.1491 181.094 45.0658 180.185 45.4766L171.31 49.5277C170.593 49.134 169.874 48.744 169.153 48.3673L167.582 38.7319C167.424 37.7551 166.768 36.926 165.852 36.5549C164.938 36.1745 163.885 36.2975 163.09 36.8768L155.18 42.5747C154.399 42.3267 153.616 42.0882 152.833 41.861L149.426 32.7179C149.079 31.7865 148.277 31.1031 147.307 30.9101C146.334 30.7189 145.339 31.0426 144.658 31.7657L137.996 38.9212C137.192 38.8323 136.382 38.7509 135.574 38.6846L130.426 30.3554C129.906 29.513 128.984 29 127.985 29C126.986 29 126.074 29.513 125.563 30.3554L120.415 38.6846C119.605 38.7509 118.795 38.8323 117.993 38.9212L111.332 31.7657C110.657 31.0426 109.654 30.7189 108.682 30.9101C107.708 31.105 106.905 31.7865 106.562 32.7179L103.156 41.861C102.365 42.0882 101.582 42.3286 100.81 42.5747L92.8995 36.8768C92.0953 36.2956 91.0469 36.1726 90.1366 36.5549C89.2226 36.9335 88.566 37.7627 88.4069 38.7319L86.8362 48.3673C86.1096 48.744 85.3904 49.132 84.6789 49.5277L75.8034 45.4766C74.9007 45.064 73.8543 45.1491 73.0216 45.702C72.1965 46.2509 71.7139 47.1917 71.7517 48.1818L72.0924 57.9686C71.4604 58.474 70.8339 58.9907 70.2151 59.5132L60.6962 57.2605C59.7291 57.0353 58.7091 57.3231 58.009 58.0235C57.305 58.7258 57.0193 59.7385 57.2463 60.7115L59.4793 70.2333C58.9589 70.8504 58.4443 71.4751 57.9389 72.1073L48.1551 71.7666C47.1692 71.7383 46.2248 72.2114 45.676 73.0369C45.1234 73.8584 45.0402 74.9109 45.4508 75.8196L49.5007 84.7166C49.107 85.4303 48.7172 86.1496 48.3406 86.8747L38.7082 88.442C37.7297 88.6011 36.9047 89.256 36.5319 90.1723C36.1534 91.0904 36.2763 92.141 36.8536 92.9361L42.5498 100.849C42.3018 101.63 42.0615 102.416 41.8344 103.215L32.6941 106.623C31.7667 106.969 31.0835 107.772 30.8905 108.742C30.6975 109.716 31.0211 110.711 31.7459 111.393L38.8993 118.056C38.8104 118.861 38.7309 119.671 38.6627 120.479L30.355 125.628C29.5129 126.149 29 127.068 29 128.07C29 129.071 29.5129 129.982 30.355 130.494L38.6627 135.642C38.7309 136.453 38.8104 137.261 38.8993 138.065L31.7459 144.729C31.0211 145.404 30.6975 146.408 30.8905 147.378C31.0835 148.354 31.7667 149.154 32.6941 149.499L41.8344 152.906C42.0615 153.698 42.3018 154.483 42.5498 155.273L36.8536 163.185C36.2745 163.992 36.1515 165.039 36.5319 165.949C36.9122 166.867 37.7392 167.522 38.7271 167.679L48.3595 169.246C48.7361 169.977 49.1221 170.696 49.5196 171.405L45.4697 180.283C45.0573 181.185 45.1424 182.232 45.695 183.065C46.2476 183.892 47.1881 184.376 48.1741 184.335L57.9389 183.993C58.448 184.629 58.9609 185.251 59.4832 185.871L57.2501 195.393C57.023 196.358 57.3088 197.362 58.0128 198.062C58.7111 198.768 59.7273 199.05 60.7 198.823L70.2189 196.589C70.8377 197.115 71.4641 197.626 72.0962 198.13L71.7555 207.917C71.7177 208.907 72.2003 209.848 73.0253 210.396C73.8467 210.947 74.8989 211.031 75.8072 210.618L84.6827 206.567C85.3981 206.965 86.1172 207.35 86.8401 207.728L88.4107 217.363C88.5697 218.343 89.2245 219.172 90.1405 219.559C91.0544 219.939 92.1085 219.816 92.9034 219.239L100.814 213.541C101.595 213.789 102.38 214.032 103.179 214.258L106.585 223.401C106.932 224.329 107.734 225.017 108.705 225.206C109.677 225.402 110.673 225.077 111.355 224.35L118.016 217.194C118.82 217.287 119.63 217.365 120.438 217.437L125.586 225.747C126.104 226.586 127.025 227.103 128.008 227.103C128.99 227.103 129.92 226.588 130.449 225.747L135.597 217.437C136.407 217.365 137.215 217.287 138.019 217.194L144.68 224.35C145.356 225.077 146.359 225.402 147.33 225.206C148.304 225.015 149.106 224.329 149.449 223.401L152.856 214.258C153.646 214.032 154.432 213.789 155.221 213.541L163.131 219.239C163.935 219.816 164.984 219.939 165.894 219.559C166.81 219.182 167.465 218.351 167.624 217.363L169.195 207.728C169.922 207.35 170.64 206.959 171.352 206.567L180.228 210.618C181.13 211.031 182.176 210.947 183.009 210.396C183.834 209.844 184.315 208.907 184.279 207.917L183.939 198.13C184.571 197.624 185.197 197.115 185.814 196.589L195.332 198.823C196.3 199.05 197.319 198.768 198.02 198.062C198.724 197.36 199.01 196.35 198.783 195.393L196.549 185.871C197.072 185.251 197.587 184.629 198.09 183.993L207.874 184.335C208.859 184.376 209.804 183.892 210.352 183.065C210.906 182.24 210.991 181.189 210.576 180.283L206.527 171.405C206.922 170.688 207.31 169.967 207.685 169.246L217.317 167.679C218.297 167.522 219.122 166.867 219.493 165.949C219.871 165.035 219.753 163.981 219.171 163.185L213.475 155.273C213.722 154.49 213.961 153.705 214.191 152.906L223.331 149.499C224.261 149.15 224.945 148.35 225.135 147.378C225.331 146.406 225.006 145.41 224.28 144.729L217.126 138.065C217.213 137.261 217.292 136.451 217.362 135.642L225.671 130.494C226.512 129.974 227.025 129.052 227.025 128.07C227.025 127.088 226.514 126.158 225.672 125.628H225.613ZM169.976 194.723C166.797 194.038 164.791 190.899 165.472 187.719C166.151 184.538 169.276 182.513 172.455 183.194C175.635 183.874 177.659 187.018 176.978 190.198C176.297 193.379 173.174 195.404 169.995 194.723H169.976ZM167.156 175.604C164.261 174.983 161.404 176.826 160.798 179.73L157.846 193.511C148.743 197.638 138.543 199.947 127.945 199.947C117.045 199.947 106.751 197.543 97.4774 193.227L94.5251 179.446C93.9044 176.55 91.0621 174.694 88.1666 175.319L75.9983 177.931C73.7464 175.604 71.6458 173.123 69.7155 170.511H128.948C129.619 170.511 130.065 170.39 130.065 169.78V148.768C130.065 148.159 129.619 148.038 128.948 148.038H111.633V134.768H130.348C132.057 134.768 139.489 135.256 141.855 144.762C142.598 147.677 144.239 157.181 145.356 160.228C146.469 163.636 150.995 170.451 155.821 170.451H185.343C185.677 170.451 186.035 170.412 186.412 170.345C184.368 173.127 182.116 175.758 179.713 178.22L167.26 175.55L167.156 175.604ZM85.2145 194.439C82.0352 195.124 78.9126 193.099 78.2314 189.914C77.552 186.734 79.5713 183.591 82.7543 182.91C85.9336 182.23 89.0561 184.256 89.7374 187.435C90.4167 190.615 88.3957 193.757 85.2145 194.439ZM62.6946 103.385C64.0117 106.357 62.6719 109.841 59.7046 111.165C56.7335 112.485 53.2704 111.143 51.9457 108.175C50.621 105.206 51.9683 101.719 54.9357 100.394C57.9068 99.0769 61.3699 100.417 62.6946 103.385ZM55.7873 119.741L68.4665 114.1C71.1726 112.898 72.4027 109.727 71.1916 107.02L68.5801 101.114H78.837V147.303H58.2096C56.4136 140.98 55.4467 134.317 55.4467 127.427C55.4467 124.795 55.5885 122.202 55.861 119.646L55.7873 119.741ZM111.425 115.254V101.625H135.837C137.099 101.625 144.75 103.084 144.75 108.8C144.75 113.55 138.883 115.254 134.058 115.254H111.349H111.425ZM200.179 127.521C200.179 129.331 200.113 131.118 199.981 132.898H192.543C191.799 132.898 191.5 133.386 191.5 134.114V137.521C191.5 145.548 186.978 147.309 183.003 147.744C179.219 148.17 175.037 146.162 174.526 143.844C172.292 131.294 168.583 128.624 162.716 123.968C170.003 119.349 177.572 112.515 177.572 103.334C177.572 93.4718 170.817 87.2627 166.218 84.215C159.746 79.9558 152.592 79.1039 150.662 79.1039H73.8296C84.2568 67.4809 98.4312 59.2274 114.327 56.1986L123.393 65.7014C125.436 67.8406 128.823 67.9352 130.981 65.8757L141.124 56.1834C162.319 60.1398 180.297 73.3529 190.705 91.5825L183.761 107.256C182.563 109.964 183.785 113.144 186.485 114.337L199.846 120.28C200.077 122.646 200.198 125.051 200.198 127.473L200.179 127.521ZM123.347 48.2045C125.694 45.9518 129.422 46.0465 131.654 48.3956C133.888 50.743 133.812 54.4722 131.459 56.7249C129.113 58.9776 125.385 58.8829 123.152 56.5318C120.919 54.1844 120.995 50.4553 123.347 48.2026V48.2045ZM192.231 103.67C193.546 100.697 197.018 99.3533 199.99 100.678C202.961 101.996 204.305 105.486 202.98 108.459C201.665 111.431 198.192 112.775 195.221 111.449C192.25 110.132 190.906 106.641 192.231 103.67Z" fill="#CE422B"/>
</svg>

<svg xmlns="http://www.w3.org/2000/svg" width="256" height="256" fill="none"><path fill="#282828" d="M196 0H60C26.863 0 0 26.863 0 60v136c0 33.137 26.863 60 60 60h136c33.137 0 60-26.863 60-60V60c0-33.137-26.863-60-60-60"/><path fill="#CE422B" d="m225.613 125.628-8.307-5.149q-.105-1.215-.237-2.423l7.153-6.663a2.85 2.85 0 0 0 .856-2.651 2.84 2.84 0 0 0-1.803-2.119l-9.141-3.408q-.346-1.184-.715-2.366l5.696-7.913c.581-.805.7-1.851.322-2.764a2.87 2.87 0 0 0-2.176-1.73l-9.633-1.567a72 72 0 0 0-1.159-2.158l4.051-8.897a2.86 2.86 0 0 0-.224-2.783 2.85 2.85 0 0 0-2.479-1.27l-9.784.34a77 77 0 0 0-1.544-1.874l2.252-9.522a2.868 2.868 0 0 0-3.45-3.45l-9.518 2.252a82 82 0 0 0-1.878-1.544l.343-9.787a2.86 2.86 0 0 0-1.27-2.48 2.87 2.87 0 0 0-2.783-.225l-8.875 4.05c-.717-.393-1.436-.783-2.157-1.16l-1.571-9.635a2.84 2.84 0 0 0-1.73-2.177 2.85 2.85 0 0 0-2.762.322l-7.91 5.698a98 98 0 0 0-2.347-.714l-3.407-9.143a2.86 2.86 0 0 0-2.119-1.808 2.87 2.87 0 0 0-2.649.856l-6.662 7.155a86 86 0 0 0-2.422-.236l-5.148-8.33A2.86 2.86 0 0 0 127.985 29a2.82 2.82 0 0 0-2.422 1.355l-5.148 8.33q-1.217.1-2.422.236l-6.661-7.155a2.87 2.87 0 0 0-2.65-.856 2.85 2.85 0 0 0-2.12 1.808l-3.406 9.143a85 85 0 0 0-2.346.714l-7.91-5.698a2.84 2.84 0 0 0-2.763-.322 2.87 2.87 0 0 0-1.73 2.177l-1.57 9.635q-1.091.567-2.158 1.16l-8.876-4.05a2.864 2.864 0 0 0-4.051 2.705l.34 9.787a91 91 0 0 0-1.877 1.544l-9.519-2.252a2.866 2.866 0 0 0-3.45 3.451l2.233 9.521a93 93 0 0 0-1.54 1.874l-9.784-.34a2.88 2.88 0 0 0-2.479 1.27 2.87 2.87 0 0 0-.225 2.783l4.05 8.897a98 98 0 0 0-1.16 2.158l-9.633 1.567a2.84 2.84 0 0 0-2.176 1.73 2.86 2.86 0 0 0 .322 2.764l5.696 7.913a81 81 0 0 0-.716 2.366l-9.14 3.408a2.86 2.86 0 0 0-.948 4.77l7.153 6.663a95 95 0 0 0-.236 2.423l-8.308 5.149A2.86 2.86 0 0 0 29 128.07c0 1.001.513 1.912 1.355 2.424l8.308 5.148q.102 1.217.236 2.423l-7.153 6.664a2.86 2.86 0 0 0 .948 4.77l9.14 3.407c.227.792.468 1.577.716 2.367l-5.696 7.912a2.857 2.857 0 0 0 1.874 4.494l9.632 1.567q.563 1.096 1.16 2.159l-4.05 8.878a2.866 2.866 0 0 0 2.704 4.052l9.765-.342a97 97 0 0 0 1.544 1.878l-2.233 9.522a2.84 2.84 0 0 0 .763 2.669 2.86 2.86 0 0 0 2.687.761l9.519-2.234a77 77 0 0 0 1.877 1.541l-.34 9.787a2.864 2.864 0 0 0 4.052 2.701l8.875-4.051q1.073.595 2.157 1.161l1.57 9.635a2.89 2.89 0 0 0 1.73 2.196c.914.38 1.969.257 2.763-.32l7.911-5.698a78 78 0 0 0 2.365.717l3.406 9.143a2.85 2.85 0 0 0 2.12 1.805 2.85 2.85 0 0 0 2.65-.856l6.661-7.156c.804.093 1.614.171 2.422.243l5.148 8.31a2.86 2.86 0 0 0 2.422 1.356 2.9 2.9 0 0 0 2.441-1.356l5.148-8.31c.81-.072 1.618-.15 2.422-.243l6.661 7.156a2.85 2.85 0 0 0 2.65.856 2.84 2.84 0 0 0 2.119-1.805l3.407-9.143c.79-.226 1.576-.469 2.365-.717l7.91 5.698a2.86 2.86 0 0 0 4.493-1.876l1.571-9.635a103 103 0 0 0 2.157-1.161l8.876 4.051a2.87 2.87 0 0 0 2.781-.222 2.86 2.86 0 0 0 1.27-2.479l-.34-9.787a79 79 0 0 0 1.875-1.541l9.518 2.234a2.863 2.863 0 0 0 3.451-3.43l-2.234-9.522a77 77 0 0 0 1.541-1.878l9.784.342a2.84 2.84 0 0 0 2.478-1.27 2.85 2.85 0 0 0 .224-2.782l-4.049-8.878q.594-1.076 1.158-2.159l9.632-1.567a2.83 2.83 0 0 0 2.176-1.73 2.85 2.85 0 0 0-.322-2.764l-5.696-7.912c.247-.783.486-1.568.716-2.367l9.14-3.407a2.85 2.85 0 0 0 1.804-2.121 2.85 2.85 0 0 0-.855-2.649l-7.154-6.664q.13-1.208.236-2.423l8.309-5.148a2.86 2.86 0 0 0 1.354-2.424c0-.982-.511-1.912-1.353-2.442zm-55.637 69.095c-3.179-.685-5.185-3.824-4.504-7.004a5.88 5.88 0 0 1 6.983-4.525c3.18.68 5.204 3.824 4.523 7.004a5.88 5.88 0 0 1-6.983 4.525zm-2.82-19.119c-2.895-.621-5.752 1.222-6.358 4.126l-2.952 13.781c-9.103 4.127-19.303 6.436-29.901 6.436-10.9 0-21.194-2.404-30.468-6.72l-2.952-13.781c-.62-2.896-3.463-4.752-6.358-4.127l-12.169 2.612a73 73 0 0 1-6.282-7.42h59.232c.671 0 1.117-.121 1.117-.731v-21.012c0-.609-.446-.73-1.117-.73h-17.315v-13.27h18.715c1.709 0 9.141.488 11.507 9.994.743 2.915 2.384 12.419 3.501 15.466 1.113 3.408 5.639 10.223 10.465 10.223h29.522c.334 0 .692-.039 1.069-.106a74 74 0 0 1-6.699 7.875l-12.453-2.67zm-81.941 18.835a5.874 5.874 0 0 1-6.984-4.525c-.679-3.18 1.34-6.323 4.523-7.004a5.883 5.883 0 0 1 6.983 4.525c.68 3.18-1.341 6.322-4.522 7.004m-22.52-91.054a5.905 5.905 0 0 1-2.99 7.78c-2.971 1.32-6.435-.022-7.76-2.99-1.324-2.969.023-6.456 2.99-7.781a5.88 5.88 0 0 1 7.76 2.991m-6.908 16.356 12.68-5.641c2.706-1.202 3.936-4.373 2.725-7.08l-2.612-5.906h10.257v46.189H58.21a72.6 72.6 0 0 1-2.763-19.876c0-2.632.142-5.225.414-7.781zm55.638-4.487v-13.629h24.412c1.262 0 8.913 1.459 8.913 7.175 0 4.75-5.867 6.454-10.692 6.454h-22.709zm88.754 12.267c0 1.81-.066 3.597-.198 5.377h-7.438c-.744 0-1.043.488-1.043 1.216v3.407c0 8.027-4.522 9.788-8.497 10.223-3.784.426-7.966-1.582-8.477-3.9-2.234-12.55-5.943-15.22-11.81-19.876 7.287-4.619 14.856-11.453 14.856-20.634 0-9.862-6.755-16.071-11.354-19.119-6.472-4.26-13.626-5.111-15.556-5.111H73.83c10.427-11.624 24.6-19.877 40.497-22.905l9.066 9.502a5.36 5.36 0 0 0 7.588.175l10.143-9.693c21.195 3.957 39.173 17.17 49.581 35.4l-6.944 15.673c-1.198 2.708.024 5.888 2.724 7.081l13.361 5.943c.231 2.366.352 4.771.352 7.193zm-76.832-79.316a5.863 5.863 0 0 1 8.307.19 5.904 5.904 0 0 1-.195 8.33 5.86 5.86 0 0 1-8.307-.193 5.905 5.905 0 0 1 .195-8.33zm68.884 55.465a5.87 5.87 0 0 1 7.759-2.992 5.894 5.894 0 0 1 2.99 7.781 5.867 5.867 0 0 1-7.759 2.99 5.89 5.89 0 0 1-2.99-7.779"/></svg>
